src/assets/img/globalping/header-grid.svg

<svg xmlns="http://www.w3.org/2000/svg" width="360" height="559" fill="none">
  <g opacity=".64" style="mix-blend-mode:overlay">
    <path fill="#17233A" d="m232.5 124 2.055 7.443a17.2 17.2 0 0 0 12.002 12.002L254 145.5l-7.443 2.055a17.2 17.2 0 0 0-12.002 12.002L232.5 167l-2.055-7.443a17.2 17.2 0 0 0-12.002-12.002L211 145.5l7.443-2.055a17.2 17.2 0 0 0 12.002-12.002zm0 275 2.055 7.443a17.2 17.2 0 0 0 12.002 12.002L254 420.5l-7.443 2.055a17.2 17.2 0 0 0-12.002 12.002L232.5 442l-2.055-7.443a17.2 17.2 0 0 0-12.002-12.002L211 420.5l7.443-2.055a17.2 17.2 0 0 0 12.002-12.002zm-116 0 2.055 7.443a17.2 17.2 0 0 0 12.002 12.002L138 420.5l-7.443 2.055a17.2 17.2 0 0 0-12.002 12.002L116.5 442l-2.055-7.443a17.2 17.2 0 0 0-12.002-12.002L95 420.5l7.443-2.055a17.2 17.2 0 0 0 12.002-12.002z"/>
    <circle cx="94.5" cy="311.5" r="13.5" fill="#17233A"/>
    <path stroke="#17233A" stroke-width="1.5" d="M103.75 525.75h25.5v25.5h-25.5z"/>
    <path stroke="#17233A" d="M-213.5 261H-10c70.14 0 127 56.86 127 127v150m116-668c0 151.878-123.569 275-276 275m276-275c0 151.878 123.569 275 276 275"/>
    <path stroke="#17233A" d="M-42.5 145.5h275v275h-275zm276 0h275v275h-275z"/>
  </g>
</svg>

<svg width="360" height="559" viewBox="0 0 360 559" fill="none" xmlns="http://www.w3.org/2000/svg">
<g style="mix-blend-mode:overlay" opacity="0.64">
<path d="M232.5 124L234.555 131.443C236.166 137.276 240.724 141.834 246.557 143.445L254 145.5L246.557 147.555C240.724 149.166 236.166 153.724 234.555 159.557L232.5 167L230.445 159.557C228.834 153.724 224.276 149.166 218.443 147.555L211 145.5L218.443 143.445C224.276 141.834 228.834 137.276 230.445 131.443L232.5 124Z" fill="#17233A"/>
<path d="M232.5 399L234.555 406.443C236.166 412.276 240.724 416.834 246.557 418.445L254 420.5L246.557 422.555C240.724 424.166 236.166 428.724 234.555 434.557L232.5 442L230.445 434.557C228.834 428.724 224.276 424.166 218.443 422.555L211 420.5L218.443 418.445C224.276 416.834 228.834 412.276 230.445 406.443L232.5 399Z" fill="#17233A"/>
<path d="M116.5 399L118.555 406.443C120.166 412.276 124.724 416.834 130.557 418.445L138 420.5L130.557 422.555C124.724 424.166 120.166 428.724 118.555 434.557L116.5 442L114.445 434.557C112.834 428.724 108.276 424.166 102.443 422.555L95 420.5L102.443 418.445C108.276 416.834 112.834 412.276 114.445 406.443L116.5 399Z" fill="#17233A"/>
<circle cx="94.5" cy="311.5" r="13.5" fill="#17233A"/>
<rect x="103.75" y="525.75" width="25.5" height="25.5" stroke="#17233A" stroke-width="1.5"/>
<path d="M-213.5 261H-10C60.1402 261 117 317.86 117 388V538" stroke="#17233A"/>
<path d="M233 -130C233 21.8783 109.431 145 -43 145" stroke="#17233A"/>
<path d="M233 -130C233 21.8783 356.569 145 509 145" stroke="#17233A"/>
<rect x="-42.5" y="145.5" width="275" height="275" stroke="#17233A"/>
<rect x="233.5" y="145.5" width="275" height="275" stroke="#17233A"/>
</g>
</svg>
